X:0343
T:The Good thing.
M:6/8
L:1/8
Q:3/8=120
I: || || DC
P:ABA % Aird prints a da capo
Z:Jack Campin * www.campin.me.uk * 2009
K:D
P:A
d3  Adf|e3  ceg|fag fed|ced cBA|\
d3  Adf|e3  ceg|fed edc|ddd d3||
P:B
AcA BdB|cec d3 |ege faf|ggf e2z|\
AcA BdB|cec d3 |ege faf|ggf e3|]
<end>
<start>
